X:2116
T:Flöteren
O:Norge
C: Annbjörg Lien
M:5/4
L:1/4
K:D
|: f>g a (af) | e>f g (ge)| f>g a (af) | (ed) c | 
B>c d (dB) | A>c d (dA) | =F>G A (AF) |1 (GA) B4 :|2 (GE) D4 |
|: B,>C D (DE) | (FD) A4 | B>c d (dB) | (AF) (EF) ED |
B,>C D (DE) | (FD) A4 | B>A G(F E)D C :|

(:musicend:)

(:music:)
